X:182
T:The Ruins Of Richmond
C:Norman Blake 
N:From "The Fields of November"-Flying Fish FF 004 TablEdited by Michael Bunting from Vol. 3, No. 7 Bluegrass and Old Time Mandolin (thanks John Baldry). 
L:1/8
Q:1/4=184
M:4/4
K:G
z8 | [g2B2G2G,2] [gBGG,][gBGG,] [g2B2G2G,2] [gBGG,][gBGG,] | [g2B2G2G,2] [g2B2G2G,2] [g2B2G2G,2] (3ABc | 
|: "Dm"d2 a2 =fg af | "G"de gd eg ze | "A"A^c eg fe cd | "D"ed [f2d2] [f2d2] gf | 
"C"e2 e2 ef ge | "G"de gd eg e^c | "D"de fg ad fa |1 g"G"e dB G2 (3BBc :|2 g"G"e dB G3A |] 
[B2E2] [B2E2] [BE][dE] [BE]A | "G"[B2D2] [B2D2] [BD][dD] [BD][AD] | "Em"[BE]B BB "G"[BG]B [BG]B | 
"D"[AF]A AA [AF]A [AF]A | "G"B3d BA GA | "F"=F/G/A F/G/A E/F/A E/F/A | "D"D2 Dc BA FG | 
"G"AG [B2G2] [B2G2] B2 | "Em"[ee][ee] [ee][ee] [ee]g [e2e2] | "G"[g2e2] [ge][ge] [ge][ge] [g2d2] | 
"Em"[ee][ee] [ee][ee] "G"[ge][ge] [ge][ge] | "D"[fd][fd] [fd][fd] [f2d2] ef | 
"G"ge de BA GB | "F"c2 =f2 ag fe | "D"d2 B2 AF A2 | "G"GB [g2B2G2] [g2B2G2] (3BBc | 
"F"c2 =f2 ag fd | "D"c/B/B AF DF AF | "G"GE DB, G,4 | ga ge df ed | 
Bc dB GB AG | EF GA BG AF | GE DB, G,4 | 


